svg/文件.svg

<svg width="24" height="24" viewBox="0 0 24 24" fill="none" xmlns="http://www.w3.org/2000/svg"><path d="M2.5 4C2.5 3.44771 2.94771 3 3.5 3H9.5L12 6H20.5C21.0523 6 21.5 6.4477 21.5 7V20C21.5 20.5523 21.0523 21 20.5 21H3.5C2.94771 21 2.5 20.5523 2.5 20V4Z" fill="#4A4A4A" stroke="#4A4A4A" stroke-width="1.5" stroke-linejoin="round"/><path d="M21.5 11H2.5" stroke="white" stroke-width="1.5" stroke-linejoin="round"/><path d="M2.5 8V14" stroke="#4A4A4A" stroke-width="1.5" stroke-linecap="round" stroke-linejoin="round"/><path d="M21.5 8V14" stroke="#4A4A4A" stroke-width="1.5" stroke-linecap="round" stroke-linejoin="round"/></svg>

<svg fill="none" viewBox="0 0 24 24"><path fill="#4A4A4A" stroke="#4A4A4A" stroke-linejoin="round" stroke-width="1.5" d="M2.5 4a1 1 0 0 1 1-1h6L12 6h8.5a1 1 0 0 1 1 1v13a1 1 0 0 1-1 1h-17a1 1 0 0 1-1-1z"/><path stroke="white" stroke-linejoin="round" stroke-width="1.5" d="M21.5 11h-19"/><path stroke="#4A4A4A" stroke-linecap="round" stroke-linejoin="round" stroke-width="1.5" d="M2.5 8v6"/><path stroke="#4A4A4A" stroke-linecap="round" stroke-linejoin="round" stroke-width="1.5" d="M21.5 8v6"/></svg>
